X:148 
T:Newpuck Reel, The 
S:Grier MS
F:file ID: cre.4/148newp
B:CRE4.156 (Ril Newpuck)
L:1/8
Q:180
M:4/4
R:reel
K:D
FD~D2 FAAc|BEGE BEGE|FD~D2 FAAc|(3Bcd eg fd d2:|
g2 bg f2 af|egfd eB B2|g2 bg f2 af|efge fd d2|
g2bg f2af|egfd edBd|ABde fedB|AGFE FDD2 |]

%%%

